X:41
M:3/4
L:1/4
K:G
B | (B G) B | (A F) A | !fermata!G2 G | (G E) G | (G D) G | !fermata!F2 A | (A F) A | (G B) d | (d A) c | (B d) !sintro!e | (d B) c | (B G) A | !fermata!G2 !eintro!|]
